X:1546
T:Dingle Regatta
O:england
M:6/8
L:1/8
K:G
|d^cd e2d|B^AB d2B|A3A^GA|
B2A G2B|d^cd e2d|B^AB d2B|A3ABA|
G3G3:|
|:d3def|g3gfg|a3aga|b2a gfe|
d3def|g3gfg|a2g f2e|def g3:|
|:gbg dgd|BdB G3|ABc F2D|G2B d3|
gbg dgd|BdB G3|ABc F2D|G3G3:|


